!!!!SEGMENT: pl-kk--kk-i-10--002-003_pekiel-bartlomiej--missa-paschalis-patrem.krn
!!!cenid: 16xx:1187
!!!COM: Pękiel, Bartłomiej
!!!COM-rismid: pe30105642
!!!CDT: <1633-~1670
!!!CNT: Polish
!!!OPR: Missa Paschalis
!!!OTL: Patrem
!!!OMV: 003
!!!PDT:
!!!AGN: Sacred; Mass
!!!SMS-siglum: PL-Kk
!!!SMS-shelfmark: Kk.I.10
!!!SMS-shelfwork: 002-003 M
!!!SMS-variant:
!!!SMS-altvar:
!!!NIFC-rismid: 1001151830
!!!URL-scan: http://repozytorium.nifc.pl/skany/pl-kk-nut--i-10
!!!ONB-nifc: UWAGA: części Mszy: 1. Kyrie, 2. Et in terra, 3. Patrem, 4. Sanctus, 5. Agnus Dei. T1mus (skan 0007-0010), T2dus (0057-0060), B (0106-0109)
!!!key:
**kern	**text	**kern	**text	**kern	**text
*part3	*part3	*part2	*part2	*part1	*part1
*staff3	*staff3	*staff2	*staff2	*staff1	*staff1
*Ibass	*	*Itenor	*	*Itenor	*
*I"[Bassus]	*	*I"Tenor Secundus.	*	*I"Tenor Imus	*
*I'B	*	*I'T 2	*	*I'T 1	*
*clefF4	*	*clefC4	*	*clefC4	*
*k[]	*	*k[]	*	*k[]	*
*a:	*	*a:	*	*a:	*
*M2/1	*	*M2/1	*	*M2/1	*
*met(C|)	*	*met(C|)	*	*met(C|)	*
=1-	=1-	=1-	=1-	=1-	=1-
*	*	*	*	*2\right	*
2AA/	Pa-	2r	.	2c\	Pa-
*2\right	*	*	*	*	*
2E\	-trem	2E/	Pa-	4B\	-trem
.	.	.	.	4G/	om-
2BB/	om-	4B\	-trem	2G/	-ni-
.	.	4B\	om-	.	.
4.D/	-ni-	8F#X/L	-ni-	2A/	-po-
.	.	8E/	.	.	.
.	.	8F#/	.	.	.
8D/	-po-	8G/J	.	.	.
=2-	=2-	=2-	=2-	=2-	=2-
4.C/	-ten-	8A/	po-	(2c\	-ten-
.	.	8E/	.	.	.
.	.	2A/	-ten-	.	.
8D/L	.	.	.	.	.
8E/	.	.	.	2B\)	.
8D/J	.	.	.	.	.
!	!	!LO:TX:b:t=P:problem=♯ below	!	!	!
4E\	.	4G#X/	.	.	.
2AA/	-tem	2A/	-tem	4c#X\	-tem
.	.	.	.	4e\	Fa-
2A\	fa-	2r	.	4.c#X\	-cto-
.	.	.	.	8c#\	-rem
=3-	=3-	=3-	=3-	=3-	=3-
4F#X\	-cto-	2r	.	2d#X\	cae-
4B\	-rem	.	.	.	.
2.E\	cae-	4r	.	2e\	-li
.	.	4Gny/	fa-	.	.
.	.	4A/	-cto-	2f#X\	&
8D#X/	-li	4B\	-rem	.	.
8D#/	&	.	.	.	.
*	*	*2\right	*	*	*
4.G\	ter-	2B\	cae-	2g\	.
16F#X\LL	.	.	.	.	.
16E\JJ	.	.	.	.	.
=4-	=4-	=4-	=4-	=4-	=4-
2B\	.	4B\	-li	4f#X\	ter-
.	.	4B\	&	2e\	.
!LO:SIC:v:t=custos E	!	!	!	!	!
2BB/	.	2B\	ter-	.	.
.	.	.	.	4d#\	.
!LO:LB:g=original	!	!LO:SIC:v:t=custos A	!	!LO:SIC:v:t=custos e	!
2E\	-rae	1B	-rae	1e	-rae
4.E\	vi-	.	.	.	.
8Dny/	-ſi-	.	.	.	.
!	!	!LO:LB:g=original	!	!LO:LB:g=original	!
=5-	=5-	=5-	=5-	=5-	=5-
4C#X/	-bi-	2.A/	vi-	2e\	vi-
8BB/	-li-	.	.	.	.
8AA/	-um	.	.	.	.
4.D/	vi-	.	.	2dny\	-si-
.	.	4A/	-ſi-	.	.
8D/	-ſi-	.	.	.	.
4.GG/	-bi-	4.B/	-bi-	4.d\	-bi-
8GG/	-li-	8B/	-li-	8d\	-li-
2Cny/	-um	2G/	-um	2cny\	-um
=6-	=6-	=6-	=6-	=6-	=6-
(2GG/	om-	2B/	om-	2d\	om-
4.AA/)	.	4.A/	.	4.c\	.
8AA/	-ni-	8A/	-ni-	8c\	-ni-
2E\	-um	2G#X/	-um	2B\	-um
8.G#X\	&	2r	.	8B\	Et
!	!	!	!	!LO:TX:b:t=P:problem=♯ below	!
.	.	.	.	8G#X/	in-
16E\	in-	.	.	.	.
!LO:SIC:v:s=8.F#	!	!	!	!	!
8.Fny\	-ui-	.	.	8A/	-ui-
.	.	.	.	8B\	-ſi-
16G#\	-ſi-	.	.	.	.
=7-	=7-	=7-	=7-	=7-	=7-
4.A\	-bi-	4A/	Et	4.c\	-bi-
.	.	2e\	in-	.	.
16Gny\LL	.	.	.	16B\LL	.
16F\JJ	.	.	.	16A\JJ	.
4.E\	.	.	.	8Gny/L	.
!	!	!	!	!LO:TX:b:t=P:problem=♯ below	!
.	.	.	.	8F#X/	.
.	.	2B\	-ui-	8G/	.
16D/LL	.	.	.	8A/J	.
!LO:SIC:v:t=custos BB	!	!	!	!	!
16C/JJ	.	.	.	.	.
!LO:LB:g=original	!	!	!	!	!
4BB/	.	.	.	2.B\	.
4GG/	.	4d\	-ſi-	.	.
8AA/L	.	2.c\	-bi-	.	.
8BB/	.	.	.	.	.
8C/	.	.	.	4A/	.
8D/J	.	.	.	.	.
=8-	=8-	=8-	=8-	=8-	=8-
!	!	!	!	!LO:TX:b:t=P:problem=♯ below	!
2.E\	.	.	.	4G#X/	-li-
.	.	8B\L	.	2A/	.
.	.	8A\J	.	.	.
.	.	4.B\	.	.	.
!	!	!	!	!LO:TX:b:t=P:problem=♯ below	!
4E\	li-	.	.	4G#X/	.
.	.	8B\	-li-	.	.
2AA/	-um	2c\	-um	2A/	-um.
!	!	!	!	!LO:SIC:v:t=custos A	!
4.AA/	&	4c\	Et	2r	.
.	.	4A\	in	.	.
8AA/	in	.	.	.	.
!	!	!	!	!LO:LB:g=original	!
=9-	=9-	=9-	=9-	=9-	=9-
2E\	v-	8B\L	v-	1r	.
.	.	8A\	.	.	.
.	.	8B\	.	.	.
!	!	!LO:SIC:v:t=custos d	!	!	!
.	.	8c\J	.	.	.
!	!	!LO:LB:g=original	!	!	!
2BB/	-num	4d\	.	.	.
.	.	4d\	-num	.	.
4.D/	D(o-	8d\L	Do-	2A/	JE-
.	.	16c\L	.	.	.
.	.	16B\J	.	.	.
.	.	8A\	.	.	.
8D/	-mi)-	8B\J	.	.	.
4C/	-num	4.c\	.	2e\	.
8c\L	JE-	.	.	.	.
16B\L	.	8c\	-mi-	.	.
16A\JJ	.	.	.	.	.
=10-	=10-	=10-	=10-	=10-	=10-
4G#X\	-sum	2B\	-num	4.B\	-svm
4E\	.	.	.	.	.
.	.	.	.	8c\	.
!LO:TX:a:t=P:problem=♯ above	!	!	!	!	!
8F#X\L	JE-	2.A/	JE-	4d\	JE-
8E\	.	.	.	.	.
!LO:TX:a:t=P:problem=♯ above	!	!	!	!	!
8F#X\	.	.	.	4d\	-svm
8Gny\J	.	.	.	.	.
8A\L	.	.	.	(2c\	CHr(i-
8Gny\	.	.	.	.	.
8Fny\J	.	4A/	-sv(m)	.	.
8E\	-sum	.	.	.	.
4D\	CHri-	4A/	CHr(i-	2B\)	.
!LO:SIC:v:t=custos AA	!	!LO:TX:b:t=P:problem=♯ below	!	!	!
4E\	.	4G#X/	.	.	.
!LO:LB:g=original	!	!	!	!	!
=11-	=11-	=11-	=11-	=11-	=11-
4AA/	-stum	4A/	-st)um	4c\	-st)um
4.A\	Fi-	4.A/	Fi-	4.c\	Fi-
8A\	-li	8A/	-li-	8c\	-li-
!LO:TX:a:t=P:problem=♯ above	!	!	!	!	!
4G#X\	-um	4B/	-um	4B\	-um
4A\	DE-	4A/	DE-	4c\	DE-
4E\	-i	4B/	-i	4e\	.
4F\	V-	4A/	V-	4c\	-I
4C/	-ni	4Gny/	-ni-	4c\	v-
=12-	=12-	=12-	=12-	=12-	=12-
4.D/	-ge-	8F#X/L	-ge-	8B\L	-ni-
.	.	8G/J	.	8A\J	.
.	.	4A/	.	2A\	-ge-
8C/	.	.	.	.	.
4.BB/	.	4.B\	.	.	.
.	.	.	.	4G#\	-ni-
!	!	!LO:SIC:v:t=custos E	!	!	!
8BB/	-ni-	8B\	-ni-	.	.
!	!	!LO:LB:g=original	!	!	!
2AA/	-tum	4E/	-tum	2A\	-tum
.	.	2A/	Et	.	.
2r	.	.	.	4c\	Et
.	.	4G#X/	ex	4B\	ex
=13-	=13-	=13-	=13-	=13-	=13-
1r	.	4A/	P(a-	4c\	P(a-
!	!	!	!	!LO:SIC:v:t=custos A	!
.	.	4Gny/	-tr)e	4B\	-tr)e
!	!	!	!	!LO:LB:g=original	!
.	.	2Fny/	na-	2A/	na-
!	!	!	!	!LO:N:acc=-	!
4r	.	4E/	-tum	4Gn/	-tum
2E\	an-	2e\	an-	2B\	an-
4BB/	-te	4d\	-te	4B\	-te
=14-	=14-	=14-	=14-	=14-	=14-
4.C/	om-	8c\L	om-	4.e\	om-
.	.	16B\L	.	.	.
.	.	16A\J	.	.	.
.	.	8G\J	.	.	.
8C/	-ni-	8A\	-ni-	8e\	-ni-
2GG/	-a	2B\	-a	2d\	-a
4r	.	4r	.	4r	.
*	*ij	*	*	*	*
2Gny\	an-	2B\	an-	2d\	an-
4D\	-te	4A/	-te	4d\	-te
=15-	=15-	=15-	=15-	=15-	=15-
4.E\	om-	4.G/	om-	4.B\	om-
8E\	-ni-	8G/	-ni-	8B\	-ni-
!LO:SIC:v:t=custos GG	!	!	!	!	!
2BB/	-a	2F#X/	-a	2B\	-a
*	*Xij	*	*	*	*
!LO:LB:g=original	!	!	!	!	!
2GG/	sae-	4.G/	ſae-	2B\	sae-
!	!	!LO:TX:b:t=P:problem=# below	!	!	!
.	.	8F#X/L	.	.	.
4.AA/	.	8E/	.	4.A/	.
.	.	8D/J	.	.	.
.	.	8.E/	.	.	.
8AA/	-cu-	.	.	8A/	-cu-
.	.	16E/	-cu-	.	.
=16-	=16-	=16-	=16-	=16-	=16-
1D	-la	1F#	-la	1A	-la
!	!	!LO:LB:g=original	!	!	!
=17-	=17-	=17-	=17-	=17-	=17-
*M3/1	*	*M3/1	*	*M3/1	*
1D	DE-	1A	DE-	1d	DE-
1D	-um	1A	-um	1d	-u(m)
1BB	de	1B	de	1d	de
=18-	=18-	=18-	=18-	=18-	=18-
0AA	DE-	0c	DE-	0e	DE-
!	!	!	!	!LO:SIC:v:t=custos c	!
1E	-o	1B	-o	1e	-o
=19-	=19-	=19-	=19-	=19-	=19-
0F	Lu-	0A	Lu-	0c	Lu-
1D	-men	1A	-men	1d	-men
=20-	=20-	=20-	=20-	=20-	=20-
1C	de	1A	de	1e	de
1.E	Lu-	1.A	Lu-	1.B	Lu-
!	!	!LO:TX:b:t=P:problem=♯ below	!	!	!
2E\	-mi-	2G#X/	-mi-	2B\	-mi-
=21-	=21-	=21-	=21-	=21-	=21-
!	!	!	!	!LO:N:acc=-	!
0.AA	-ne	0.A	-ne	0.cn	-ne
=22-	=22-	=22-	=22-	=22-	=22-
1r	.	1r	.	1r	.
1A	DE-	1c	DE-	1e	DE-
1E	-u(m)	1B	-um	1e	-u(m)
=23-	=23-	=23-	=23-	=23-	=23-
0F	Ve-	0A	ve-	0c	ve-
!LO:SIC:v:t=custos FF	!	!	!	!	!
1C	-rum	1Gny	-ru(m)	1c	-rum
!LO:PB:g=original	!	!	!	!	!
=24-	=24-	=24-	=24-	=24-	=24-
1FF	de	1c	de	1fny	de
1C	DE-	1c	DE-	1e	DE-
1D	-o	1A	-o	1d	-o
=25-	=25-	=25-	=25-	=25-	=25-
0AA	Ve-	0A	ve-	0c#X	ve-
!	!	!LO:SIC:v:t=custos F	!	!	!
1AA	-ro	1A	-ro	1c#	-ro
!	!	!LO:LB:g=original	!	!	!
=26-	=26-	=26-	=26-	=26-	=26-
0BB-X	de	0Fny	de	1d	de
.	.	.	.	2B-\	DE-
.	.	.	.	2cny\	.
1GG	DE-	1G	DE-	2d\	.
.	.	.	.	2d\	-o
=27-	=27-	=27-	=27-	=27-	=27-
*col	*	*	*	*	*
1FF	-o	1A	-o	(0d	Ve-
*	*	*col	*	*	*
0AA	Ve-	0A	Ve-	.	.
!	!	!	!	!LO:SIC:v:t=custos tekstowy:ro	!
!	!	!	!	!LO:TX:b:t=ro	!
!	!	!	!	!LO:SIC:v:t=custos d	!
!	!	!	!	!LO:TX:b:t=P:problem=♯ below	!
.	.	.	.	1c#X)	.
*Xcol	*	*	*	*	*
!	!	!	!	!LO:LB:g=original	!
=28-	=28-	=28-	=28-	=28-	=28-
*	*	*Xcol	*	*	*
0.D	-ro	0.A	-ro	0.d	-ro
=29-	=29-	=29-	=29-	=29-	=29-
*M2/1	*	*M2/1	*	*M2/1	*
*met(C|)	*	*met(C|)	*	*met(C|)	*
4.D\	Ge-	1r	.	4.d\	Ge-
8D\	-ni-	.	.	8d\	-ni-
4E\	-tu(m)	.	.	4cny\	-tum
!LO:TX:t=P:problem=♯ above	!	!	!	!	!
4F#X\	n(on)	.	.	4A/	n(on)
2G\	fa-	4.G/	Ge-	8Bny\L	fa-
.	.	.	.	8c\	.
.	.	.	.	8d\	.
.	.	8G/	-ni-	8e\J	.
2D/	-ctu(m)	4A/	-tum	2d\	.
.	.	4B\	n(on)	.	.
=30-	=30-	=30-	=30-	=30-	=30-
4.C/	con-	2c\	fa-	4G/	-ctum
.	.	.	.	8.e\	con-
8C/	-ſub-	.	.	.	.
.	.	.	.	16e\	-ſub-
4BBny/	-sta(n)-	2d\	-ctum	4d\	-ſta(n)-
!LO:SIC:v:t=custos AA	!	!	!	!	!
4GG/	-ti-	.	.	4B\	-ti-
!LO:LB:g=original	!	!	!	!	!
8AA/L	-a-	4r	.	8c\L	-a-
8BB/	.	.	.	8d\J	.
8C/	.	8.c\	Con-	2e\	.
8D/J	.	.	.	.	.
.	.	16c\	-sub-	.	.
4E\	.	8B\	-ſtan-	.	.
.	.	8G/	-ti-	.	.
4C/	-lem	8.c\	-a-	4e\	-lem
.	.	16B\	-lem	.	.
=31-	=31-	=31-	=31-	=31-	=31-
(2Fny\	P(a-	8A\L	Pa-	4.f\	Pa-
.	.	8B\J	.	.	.
.	.	2c\	.	.	.
.	.	.	.	8e\L	.
2G\)	.	.	.	8d\	.
.	.	.	.	8c\J	.
!	!	!LO:SIC:v:t=custos c	!	!	!
.	.	4B\	.	4d\	.
!	!	!LO:LB:g=original	!	!	!
4C/	-t)ri	4c\	-tri	4e\	-tri
8.C/	per	8.c\	per	8.e\	per
!	!	!	!	!LO:SIC:v:t=custos d	!
16C/	quem	16c\	quem	16e\	que(m)
!	!	!	!	!LO:LB:g=original	!
4.GG/	o(m-	4.B\	om-	4.d\	om-
8GG/	-n)i-	8B\	-ni-	8d\	-ni-
=32-	=32-	=32-	=32-	=32-	=32-
4GG/	-a	4B\	-a	4d\	-a
8.D/	p(er)	8A/	p(er)	8.d\	p(er)
.	.	8A/	quem	.	.
16D/	que(m)	.	.	16d\	quem
4.AA/	om-	4.A/	om-	4.c\	om-
8AA/	-ni-	8A/	-ni-	8c\	-ni-
4AA/	-a	4A/	-a	4c\	-a
*	*	*	*ij	*	*
4.FF/	o(m-	4.A/	om-	4.c\	o(m-
8FF/	-n)i-	8A/	-ni-	8c\	-ni)-
4GG/	-a	4G/	-a	4B-X\	-a
*	*	*	*Xij	*	*
=33-	=33-	=33-	=33-	=33-	=33-
2.AA/	fa-	4F/	fa-	2.A/	fa-
.	.	8E/L	.	.	.
.	.	8D/J	.	.	.
.	.	4.E/	.	.	.
4AA/	-cta	.	.	4A/	-cta
.	.	8E/	-cta	.	.
!LO:SIC:v:t=custos D	!	!	!	!	!
1D	sunt	1F#X	sunt	1A	sunt
!LO:LB:g=original	!	!	!	!	!
=34-	=34-	=34-	=34-	=34-	=34-
*M3/1	*	*M3/1	*	*M3/1	*
00.r	.	1r	.	1d	Qui
.	.	1r	.	1.f	pro-
!	!	!LO:SIC:v:t=custos A	!	!	!
.	.	1D	Qui	.	.
.	.	.	.	4e\	-pter
.	.	.	.	4d\	.
!	!	!LO:LB:g=original	!	!	!
=35-	=35-	=35-	=35-	=35-	=35-
.	.	0A	pro-	(2c#X\	.
.	.	.	.	2Bny\)	.
.	.	.	.	2c#\	.
.	.	.	.	2d\	.
!	!	!	!	!LO:SIC:v:t=custos d	!
.	.	1E	-pter	1e	.
!	!	!	!	!LO:LB:g=original	!
=36-	=36-	=36-	=36-	=36-	=36-
00.r	.	1Fny	nos	1d	nos
.	.	1.A	ho-	1.d	ho-
!	!	!	!	!LO:TX:t=P:problem=♯ above	!
.	.	2A/	-mi-	2c#X\	-mi-
=37-	=37-	=37-	=37-	=37-	=37-
.	.	0.D	-nes	0.d	-nes
=38-	=38-	=38-	=38-	=38-	=38-
1D	Et	1A	Et	1d	Et
1D	pro-	1A	p(ro)-	1d	p(ro)-
1BB	-pter	1B	-p(te)r	1d	-p(te)r
=39-	=39-	=39-	=39-	=39-	=39-
0AA	no-	0c	n(os-	0e	n(os-
1E	-stram	1B	-t)ram	1e	-t)ram
=40-	=40-	=40-	=40-	=40-	=40-
1C	ſa-	1c	ſa-	1e	sa-
*lig	*	*col	*	*lig	*
1D	-lu-	0B	-lu-	1f	-lu-
1E	.	.	.	1e	.
*Xlig	*	*	*	*Xlig	*
=41-	=41-	=41-	=41-	=41-	=41-
*	*	*Xcol	*	*	*
0AA	-tem	0.c#X	-tem	0.e	-tem
1A	de-	.	.	.	.
=42-	=42-	=42-	=42-	=42-	=42-
1.F#X	-scen-	0.d	de-	00.r	.
2E\	-dit	.	.	.	.
1F#	de	.	.	.	.
=43-	=43-	=43-	=43-	=43-	=43-
0.G	cae-	(<0.B	-scen-	.	.
=44-	=44-	=44-	=44-	=44-	=44-
0C	-lis	0.cny)	.	0.r	.
1C	de-	.	.	.	.
=45-	=45-	=45-	=45-	=45-	=45-
0.FF	-scen-	0.A	.	1r	.
.	.	.	.	1r	.
.	.	.	.	1f	de-
=46-	=46-	=46-	=46-	=46-	=46-
!	!	!LO:SIC:v:t=custos F	!	!	!
0C	-dit de	0.G	-dit	1.e	-scen-
.	.	.	.	2d\	-dit
!LO:SIC:v:t=custos D	!	!	!	!	!
1C	.	.	.	1e	de
!LO:LB:g=original	!	!LO:LB:g=original	!	!	!
=47-	=47-	=47-	=47-	=47-	=47-
0D	cae-	2F/	de	0d	cae-
.	.	2G/	.	.	.
.	.	2A/	.	.	.
.	.	2B\	.	.	.
!	!	!	!	!LO:SIC:v:t=custos c	!
1A	.	2c\	.	1cny	-lis
.	.	2d\	.	.	.
!	!	!	!	!LO:LB:g=original	!
=48-	=48-	=48-	=48-	=48-	=48-
*	*	*	*	*lig	*
1E	.	0.e	.	1c	de
*lig	*	*	*	*	*
1G	.	.	.	1B	.
*	*	*	*	*Xlig	*
1Fny	.	.	.	1A	.
*Xlig	*	*	*	*	*
=49-	=49-	=49-	=49-	=49-	=49-
*	*	*col	*	*lig	*
2r	.	0d	Cae-	1f	Cae-
2G\	.	.	.	.	.
*lig	*	*Xcol	*	*	*
1A	.	.	.	1.e	.
1AA	.	1c#X	.	.	.
*Xlig	*	*	*	*Xlig	*
.	.	.	.	2E/	.
=50-	=50-	=50-	=50-	=50-	=50-
*M2/1	*	*M2/1	*	*M2/1	*
*met(C|)	*	*met(C|)	*	*met(C|)	*
!LO:TX:t=P:problem=kreska pseudotaktowa	!	!LO:TX:t=P:problem=kreska pseudotaktowa	!	!LO:TX:t=P:problem=kreska pseudotaktowa	!
1D	-lis	1d	-lis	1F#X;	-lis
4D\	ET	4d\	Et	4A\	Et
8.D\	in-	8.d\	In-	8A\	In-
.	.	.	.	8d\	-car-
16D\	-car-	16d\	-car-	.	.
4.G\	-na-	4.B\	-na-	4.d\	-na-
8GG/	-t(us)	8B\	-t(us)	8d\	-tus
=51-	=51-	=51-	=51-	=51-	=51-
4C/	e(st)	4cny\	e(st)	4e\	e(st)
4C/	de	4c\	de	4e\	de
4.F\	Spi-	4.A/	Sp(i-	2.c\	Spi-
8F\	-ri-	8A/	-ri-	.	.
2C/	-tu	2G/	-t)u	.	.
.	.	.	.	8c\	ri-
.	.	.	.	8c\	-tu
!	!	!LO:SIC:v:t=custos E	!	!	!
2D/	Sa(n)-	2F/	ſa(n)-	2A/	Sa(n)-
!	!	!LO:LB:g=original	!	!	!
=52-	=52-	=52-	=52-	=52-	=52-
!LO:SIC:v:t=custos A	!	!	!	!	!
1AA	-cto	1E	-cto	1A	-cto
!LO:LB:g=original	!	!	!	!	!
4r	.	1r	.	4r	.
!	!	!	!	!LO:TX:t=P:problem=♯ above	!
2A\	Ex	.	.	2c#X\	Ex
!	!	!	!	!LO:SIC:v:t=custos e	!
4F\	Ma-	.	.	4f\	Ma-
!	!	!	!	!LO:LB:g=original	!
=53-	=53-	=53-	=53-	=53-	=53-
4.G\	-ri-	1r	.	8e\	-ri-
.	.	.	.	8B\	-a
.	.	.	.	2d\	Vir-
8D\	-a	.	.	.	.
4.A\	Vir-	.	.	.	.
!	!	!	!	!LO:TX:t=P:problem=♯ above	!
.	.	.	.	4c#X\	-gi-
8A\	-gi-	.	.	.	.
2D/	-ne	4r	.	2d\	-ne
.	.	4D/	ET	.	.
4AA/	Et	2A/	Ho-	2r	.
2A\	Ho-	.	.	.	.
=54-	=54-	=54-	=54-	=54-	=54-
.	.	4E/	-mo	1r	.
4G\	.	4B\	.	.	.
2F\	.	4c\	.	.	.
.	.	4d\	.	.	.
4.E\	.	2B\	fa-	4E/	Et
.	.	.	.	2e\	Ho-
8D/	.	.	.	.	.
4C#X/	.	2A/	.	.	.
4D/	-mo	.	.	4d\	-mo
=55-	=55-	=55-	=55-	=55-	=55-
2.AA/	fa-	2.A/	.	8c#X\L	fa-
.	.	.	.	16d\L	.
.	.	.	.	16e\JJ	.
.	.	.	.	16f\LL	.
.	.	.	.	16e\	.
.	.	.	.	16f\	.
!	!	!	!	!LO:TX:a:t=d:korekta:problem	!
.	.	.	.	16d\JJ	.
.	.	.	.	4.e\	.
4AA/	-ctus	4A/	-ctus	.	.
.	.	.	.	8E/	-ctus
!	!	!LO:N:vis=0	!	!	!
1D;	e(st).	1A;	e(st).	1F#X;	e(st).
!LO:LB:g=original	!	!	!	!LO:LB:g=original	!
=56-	=56-	=56-	=56-	=56-	=56-
*M2/1	*	*M2/1	*	*M2/1	*
*met(C|)	*	*met(C|)	*	*met(C|)	*
2.D\	Cru-	2r	.	00r	.
.	.	2.A\	Cru-	.	.
4E\	-ci-	.	.	.	.
4F\	-fi-	.	.	.	.
4D\	-xus	4B\	-ci-	.	.
4.A\	e-	4c\	-fi-	.	.
.	.	4A\	-x(us)	.	.
8G\	-ti-	.	.	.	.
=57-	=57-	=57-	=57-	=57-	=57-
4F#X\	-am	4.d\	e-	.	.
4D\	pro	.	.	.	.
.	.	8c\	-ti-	.	.
1G	no-	4B\	-am	.	.
!	!	!LO:SIC:v:t=custos B	!	!	!
.	.	4G/	p(ro)	.	.
!	!	!LO:LB:g=original	!	!	!
.	.	(4B\	no-	.	.
.	.	4c\)	.	.	.
2F#\	.	1d\	.	.	.
=58-	=58-	=58-	=58-	=58-	=58-
1E	.	.	.	2.G/	Cru-
.	.	2c\	.	.	.
.	.	.	.	4A/	-ci-
1D	.	2B\	.	4B\	-fi-
.	.	.	.	4G/	-xus
.	.	2A/	.	2.d\	e-
=59-	=59-	=59-	=59-	=59-	=59-
0E	.	2G#X/	.	.	.
.	.	.	.	4d\	-ti-
.	.	1A	.	4cny\	-am
.	.	.	.	4c\	pro
.	.	.	.	1B	no-
.	.	2G#X/	.	.	.
=60-	=60-	=60-	=60-	=60-	=60-
!	!	!	!	!LO:N:acc=-	!
2AA/	-bis	2A/	-bis	2cn\	-bis
2A\	sub	2c\	sub	2r	.
2A\	Po(n)-	2c\	Pon-	2r	.
!LO:TX:t=P:problem=♯ above	!	!	!	!	!
2G#X\	-ti-	2B\	-ti-	2e\	sub
=61-	=61-	=61-	=61-	=61-	=61-
!LO:SIC:v:t=custos F	!	!	!	!	!
2A\	-o	2c\	-o	2e\	Pon-
!LO:LB:g=original	!	!	!	!	!
2Fny\	Pi-	2A/	Pi-	2d\	-ti-
0Gny	-la-	4B\	-la-	2.e\	-o
.	.	4Gny/	.	.	.
.	.	1c\	.	.	.
.	.	.	.	8d\L	Pi-
.	.	.	.	8c\J	.
=62-	=62-	=62-	=62-	=62-	=62-
!	!	!	!	!LO:SIC:v:t=custos e	!
.	.	.	.	1d	-la[[to]]-
.	.	2B\	.	.	.
!	!	!	!	!LO:LB:g=original	!
2Cny/	-to	1c	-to	2e\	-to
1C	paſ-	.	.	1e\	paſ-
=63-	=63-	=63-	=63-	=63-	=63-
.	.	1c	paſ-	.	.
2AA/	-sus	.	.	2c\	-sus
!	!	!LO:SIC:v:t=custos B	!	!	!
1D	&	1A	-s(us)	1.d	Et
!	!	!LO:LB:g=original	!	!	!
=64-	=64-	=64-	=64-	=64-	=64-
1GG	Se-	2.B-X\	Et	.	.
.	.	.	.	2e\	ſe-
.	.	4B-\	Se-	.	.
1.AA	-pul-	1.A	-pul-	4c#X\	-pul-
.	.	.	.	4A\	.
.	.	.	.	2.d\	.
=65-	=65-	=65-	=65-	=65-	=65-
.	.	.	.	.	.
!	!	!	!	!LO:TX:t=P:problem=♯ above	!
.	.	.	.	8c#X\L	.
.	.	.	.	8B\J	.
!	!	!	!	!LO:TX:t=P:problem=♯ above	!
2AA/	-tus	2A/	-tus	4.c#X\	.
.	.	.	.	8c#\	-tus
1Dl;<	e(st).	1Al;	e(st).	1d;<	eſt.
!LO:LB:g=original	!	!	!	!LO:LB:g=original	!
=66-	=66-	=66-	=66-	=66-	=66-
*M3/1	*	*M3/1	*	*M3/1	*
1D	ET	1A	ET	1d	ET
1F#X	re-	1A	re-	1.d	re-
1D	-ſur-	1A	-ſur-	.	.
.	.	.	.	2d\	-ſur-
=67-	=67-	=67-	=67-	=67-	=67-
0A	-re-	0A	-re-	0c#X	-re-
1AA	-xit	1A	-xit	1c#	-xit
=68-	=68-	=68-	=68-	=68-	=68-
1D	ter-	1A	ter-	1d	ter-
2D/	-ti-	2A/	-ti-	2d\	-ti-
2AA/	-a	2A/	-a	2cny\	-a
1E	di-	1Bny	di-	1e	di-
=69-	=69-	=69-	=69-	=69-	=69-
0A	-e	0c#X	-e	0e	-e
1F#X	se-	1A	se-	1d	se-
=70-	=70-	=70-	=70-	=70-	=70-
2G\	-cun-	0B	-cun-	0d	-cun-
!LO:TX:t=P:problem=♯ above	!	!	!	!	!
2F#X\	.	.	.	.	.
2G\	.	.	.	.	.
2A\	.	.	.	.	.
!	!	!LO:SIC:v:t=custos A	!	!	!
1B	.	1B	-dum	1d	-dum
!	!	!LO:LB:g=original	!	!	!
=71-	=71-	=71-	=71-	=71-	=71-
2F#X\	-dum	1A	scrip-	1d	scri-
2F#\	scri-	.	.	.	.
*col	*	*lig	*	*	*
!LO:SIC:v:t=custos D	!	!	!	!	!
0E	-ptu-	1B	-tu-	1.d	-ptu-
.	.	1G	.	.	.
!	!	!	!	!LO:SIC:v:t=custos d	!
!	!	!	!	!LO:TX:t=P:problem=♯ above	!
.	.	.	.	2c#X\	.
*Xcol	*	*Xlig	*	*	*
!LO:PB:g=original	!	!	!	!LO:PB:g=original	!
=72-	=72-	=72-	=72-	=72-	=72-
1D	-ras	1A	-ras	1d	-ras
1.D	&	1.A	&	1.d	&
2D/	a-	2A/	a-	2d\	a-
=73-	=73-	=73-	=73-	=73-	=73-
0BB	-scen-	0B	-scen-	0d	-scen-
1FF#X	-dit	1A	-dit	1d	-dit
=74-	=74-	=74-	=74-	=74-	=74-
*col	*	*	*	*	*
1GG	in	1B	in	1d	in
*	*	*col	*	*lig	*
0AA	cae-	0A	cae-	1d	cae-
!	!	!	!	!LO:TX:b:t=P:problem=♯ below	!
.	.	.	.	1c#X	.
*Xcol	*	*	*	*Xlig	*
=75-	=75-	=75-	=75-	=75-	=75-
*	*	*Xcol	*	*	*
0.D	-lum	0.A	-lum	0.d	-lum
=76-	=76-	=76-	=76-	=76-	=76-
1D	se-	1A	se-	1d	se-
1D	-det	1.A	-det	1.d	-det
1D	ad	.	.	.	.
.	.	2d\	ad	2d\	ad
=77-	=77-	=77-	=77-	=77-	=77-
1.D	dex-	1.d	dex-	1.f#X	dex-
2D\	-te-	2d\	-te-	2f#\	-te-
1E	-ram	1B	-ram	1e	-ram
=78-	=78-	=78-	=78-	=78-	=78-
*lig	*	*lig	*	*	*
1F#X	Pa-	(1A	Pa-	0d	Pa-
1G	.	1B)	.	.	.
*Xlig	*	*Xlig	*	*	*
!	!	!LO:SIC:v:t=custos A	!	!LO:TX:t=P:problem=♯ above	!
1A	.	1A	.	1c#X	.
!	!	!LO:LB:g=original	!	!	!
=79-	=79-	=79-	=79-	=79-	=79-
*M2/1	*	*M2/1	*	*M2/1	*
*met(C|)	*	*met(C|)	*	*met(C|)	*
2D/	-tris	4A/	-tris	2d\	-tris
.	.	4A/	&	.	.
!	!	!	!	!LO:SIC:v:t=custos A	!
4r	.	4.B\	i-	2r	.
!LO:SIC:v:t=custos E	!	!	!	!	!
4D/	ET	.	.	.	.
.	.	8A/	-te-	.	.
!LO:LB:g=original	!	!	!	!LO:LB:g=original	!
4.E\	i-	4G#X/	-rum	1r	.
.	.	4E/	Ven-	.	.
8D/	-te-	.	.	.	.
4C#X/	-rum	4.A/	-tu-	.	.
4AA/	Ven-	.	.	.	.
.	.	8Gny/	-r(us)	.	.
=80-	=80-	=80-	=80-	=80-	=80-
!	!	!LO:TX:b:t=P:problem=♯ below	!	!	!
4.D/	-tu-	4F#X/	e(t)	4r	.
.	.	4F#/	cu(m)	4A/	cum
8D/	-r(us)	.	.	.	.
4GG/	e(st)	4.G/	gl(o-	4.B\	glo-
4GG/	cum	.	.	.	.
.	.	8G/	-ri)-	8B\	-ri-
!	!	!LO:TX:b:t=P:problem=♯ below	!	!	!
4D/	gl(o-	4F#X/	-a	4A/	-a
8D/	-ri)-	2F#/	iu-	2A/	iu-
8D/	-a	.	.	.	.
4D/	iu-	.	.	.	.
4BB/	-di-	4G#X/	-di-	4B\	-di-
=81-	=81-	=81-	=81-	=81-	=81-
4AA/	-ca-	4A/	-ca-	4.E/	-ca-
!LO:TX:t=P:problem=♯ above	!	!	!	!	!
4GG#X/	-re	4B/	-re	.	.
.	.	.	.	8e\	-re
2AA/	Vi-	2A/	vi-	2cny\	vi-
!	!	!LO:TX:b:t=P:problem=♯ below	!	!	!
2E\	-uos	2G#X/	-uos	2B\	-uos
2Cny/	&	2A/	&	2c\	&
=82-	=82-	=82-	=82-	=82-	=82-
!	!	!LO:TX:b:t=P:problem=♯ below	!	!	!
1.D	mor-	2F#X/	mor-	2B\	mor-
.	.	1Gny	.	4A/	.
.	.	.	.	4G/	.
.	.	.	.	2.A/	.
!	!	!LO:TX:b:t=P:problem=♯ below	!	!	!
!	!	!LO:SIC:v:t=custos G	!	!	!
2D/	-tu-	2F#/	-tu-	.	.
.	.	.	.	4A/	-tu-
!	!	!LO:PB:g=original	!	!	!
=83-	=83-	=83-	=83-	=83-	=83-
1GGny	-os	2G/	-os	1B	-os
.	.	2d\	Cu-	.	.
2G\	Cu-	2B\	-ius	2r	.
!LO:SIC:v:t=custos F	!	!	!	!	!
2E\	-ius	2cny\	reg-	2e\	Cu-
!LO:LB:g=original	!	!	!	!	!
=84-	=84-	=84-	=84-	=84-	=84-
2Fny\	reg-	2A/	-ni	4c\	-ius
.	.	.	.	4.c\	re-
4C/	-ni	2G/	n(on)	.	.
.	.	.	.	16B\LL	.
.	.	.	.	16A\JJ	.
!	!	!	!	!LO:SIC:v:t=custos A	!
4C/	n(on)	.	.	4G/	.
!	!	!	!	!LO:LB:g=original	!
4AA/	e-	2Fny/	e-	4A/	-gni
4BB/	-rit	.	.	4d\	n(on)
8C/L	fi-	2E/	-rit	4G/	e-
8D/	.	.	.	.	.
8E/	.	.	.	4c\	-rit
8F/J	.	.	.	.	.
=85-	=85-	=85-	=85-	=85-	=85-
2G\	.	4G/	non	2B\	fi-
.	.	8B\L	e-	.	.
.	.	8c\J	.	.	.
4D\	-nis	8d\L	.	4.A\	-nis
.	.	8c\	.	.	.
4D\	no(n)	8A\	.	.	.
.	.	8B\J	.	8d\	n(on)
2A\	e-	4.c\	.	2c\	e-
.	.	8d\	-rit	.	.
2E\	-rit	2e\	fi-	2B\	-rit
=86-	=86-	=86-	=86-	=86-	=86-
2G\	fi-	2B\	-nis	4G/	non
.	.	.	.	8B\L	e-
.	.	.	.	8c\J	.
2F\	-nis	2A/	non	2.d\	.
2E\	Fi-	(4B/	e-	.	.
!	!	!	!	!LO:TX:t=P:problem=♯ above	!
.	.	4G/)	.	4c#X\	.
4D/	.	4A/	.	4d\	.
!	!	!LO:SIC:v:t=custos A	!	!	!
4D/	.	4A/	.	4d\	-rit
!	!	!LO:LB:g=original	!	!	!
=87-	=87-	=87-	=87-	=87-	=87-
!	!	!	!	!LO:TX:t=P:problem=♯ above	!
4AA/	.	4.A/	.	8c#X\	fi-
.	.	.	.	8A\	.
4FFny/	.	.	.	2d\	.
.	.	8A/	-rit	.	.
4GG/	.	4B-X\	fi-	.	.
!	!	!	!	!LO:TX:t=P:problem=♯ above	!
4AA/	.	4A/	.	4c#X\	.
=88-	=88-	=88-	=88-	=88-	=88-
*M3/1	*	*M3/1	*	*M3/1	*
1D	-nis	1A	-nis	1d	-nis
1.D	&	1A	Et	1d	Et
!	!	!	!	!LO:SIC:v:t=custos d	!
.	.	1A	in	1d	in
!LO:SIC:v:t=custos GG	!	!	!	!	!
2D\	in	.	.	.	.
!LO:LB:g=original	!	!	!	!LO:LB:g=original	!
=89-	=89-	=89-	=89-	=89-	=89-
1.GG	Sp(i-	1.Bny	ſp(i-	1.d	Sp(i-
2GG/	-ri-	2B\	-ri-	2d\	-ri-
1GG	-t)um	1B	-t)um	1d	-t)um
=90-	=90-	=90-	=90-	=90-	=90-
1.D	San-	0A	S(an-	0.d	San-
2C/	.	.	.	.	.
1BB	.	1B	-ctum).	.	.
=91-	=91-	=91-	=91-	=91-	=91-
*	*	*lig	*	*	*
1AA	-ctum	1c	D(o-	1e	-ctum
1.E	D(o-	1.B	.	1.e	D(o-
*	*	*Xlig	*	*	*
2E\	-mi)-	2B\	-mi)-	2e\	-mi-
=92-	=92-	=92-	=92-	=92-	=92-
!	!	!LO:TX:a:t=P:problem=♯ above	!	!	!
1A	-num	1c#X	-num	1e	-n)um
2.F#X\	&	2.A/	Et	2.d\	&
4F#\	vi-	4A/	Vi-	4d\	Vi-
1G	-ui-	1B	-ui-	1d	-ui-
=93-	=93-	=93-	=93-	=93-	=93-
1B	-fi-	1B	-fi-	1d	-fi-
*lig	*	*lig	*	*lig	*
1G	-can-	1B	-can-	1d	-can-
!	!	!LO:SIC:v:t=custos A	!	!LO:TX:b:t=P:problem=♯ below	!
1A	.	1A	.	1c#X	.
*Xlig	*	*Xlig	*	*Xlig	*
!	!	!LO:LB:g=original	!	!	!
=94-	=94-	=94-	=94-	=94-	=94-
1D	-tem	1A	-tem	1d	-tem
1D	qui	1A	qui	1d	qui
1C#X	ex	1A	ex	1e	ex
=95-	=95-	=95-	=95-	=95-	=95-
0D	Pa-	0A	P(a-	0d	P(at)-
!	!	!	!	!LO:SIC:v:t=custos B	!
!LO:SIC:v:t=custos BB	!	!	!	!LO:TX:b:t=P:problem=♯ below	!
1AA	-tre	1A	-t)re	1c#X	-re
!LO:LB:g=original	!	!	!	!LO:LB:g=original	!
=96-	=96-	=96-	=96-	=96-	=96-
!	!	!LO:SIC:v:s=1F#	!	!	!
1BB	fi-	1F	Fi-	1B	Fi-
!	!	!LO:SIC:v:s=2F#	!	!	!
2BB/	-li-	2F/	-li-	2B\	-li-
!	!	!LO:SIC:v:s=2F#	!	!	!
2BB/	-o-	2F/	-o-	2B\	-o-
1GG	-q(ue)	1G	-q(ue)	1B	-q(ue)
=97-	=97-	=97-	=97-	=97-	=97-
!LO:TX:a:t=P:problem=# above	!	!	!	!	!
1FF#X	pro-	1A	pro-	1A	pro-
*col	*	*col	*	*	*
0GG	-ce-	0G	-ce-	0B	-ce-
=98-	=98-	=98-	=98-	=98-	=98-
*Xcol	*	*Xcol	*	*	*
1D	.	1F#X	-dit	1A	-dit
1D	-dit	1A	qui	1d	qui
1BB	qui	1B	cum	1d	cum
=99-	=99-	=99-	=99-	=99-	=99-
2AA/	cu(m)	0cny	Pa-	0e	Pa-
2BB/	Pa-	.	.	.	.
2Cny/	.	.	.	.	.
2D/	.	.	.	.	.
1E	.	1B	-tre	1e	-tre
=100-	=100-	=100-	=100-	=100-	=100-
2C/	tre	1c	Et	1e	Et
2C/	&	.	.	.	.
1.E	Fi-	1.B	Fi-	1.e	Fi-
2E\	-li-	2B\	-li-	2e\	-li-
=101-	=101-	=101-	=101-	=101-	=101-
!	!	!LO:N:acc=-	!	!	!
!	!	!LO:SIC:v:t=custos c	!	!	!
0.AA	-o	0.cn	-o	0.e	-o
!	!	!LO:LB:g=original	!	!	!
=102-	=102-	=102-	=102-	=102-	=102-
1.A	Si-	1.c	si-	1.e	Si-
2A\	-mul	2c\	-mul	2e\	-mul
2.E\	a-	2.B\	a-	2.e\	a-
!LO:SIC:v:t=custos F	!	!	!	!	!
4E\	-do-	4B\	-do-	4e\	-do-
!LO:LB:g=original	!	!	!	!	!
=103-	=103-	=103-	=103-	=103-	=103-
0Fny	-ra-	0A	-ra-	0cny	-ra-
!	!	!	!	!LO:SIC:v:t=custos c	!
1C	-tur	1G	-tur	1c	-tur
!	!	!	!	!LO:LB:g=original	!
=104-	=104-	=104-	=104-	=104-	=104-
*	*	*	*ij	*	*
1.F	si-	1.A	si-	1.c	si-
2F\	-mul	2A/	-mul	2c\	-mul
2.C/	a-	2.G/	a-	2.c\	a-
4C/	-do-	4G/	-do-	4c\	-do-
=105-	=105-	=105-	=105-	=105-	=105-
1.D	-ra-	1Fny	-ra-	1A	-ra-
.	.	1F	-tur	1A	-tur
*	*	*	*Xij	*	*
2D/	-tur	.	.	.	.
1AA	&	1E	Et	1A	&
=106-	=106-	=106-	=106-	=106-	=106-
1.BB-X	con-	1.D	con-	1.Fny	con-
!	!	!LO:TX:a:t=P:problem=# above	!	!	!
2AA/	-glo-	2F#X/	-glo-	2A/	-glo-
1GG	-ri-	1G	-ri-	1B-X	-ri-
=107-	=107-	=107-	=107-	=107-	=107-
*col	*	*	*	*col	*
1FF#X	-fi-	1A	-fi-	1A	-fi-
*	*	*col	*	*	*
0GG	-ca-	0B-X	-ca-	0G	-ca-
*Xcol	*	*	*	*Xcol	*
=108-	=108-	=108-	=108-	=108-	=108-
*	*	*Xcol	*	*	*
0.D	-tur	0.A	-tur	0.F#X	-tur
=109-	=109-	=109-	=109-	=109-	=109-
*M2/1	*	*M2/1	*	*M2/1	*
*met(C|)	*	*met(C|)	*	*met(C|)	*
2r	.	4.d\	Qui	1r	.
!	!	!LO:SIC:v:t=custos c	!	!	!
.	.	8A/	lo-	.	.
!	!	!LO:LB:g=original	!	!	!
4.A\	Qui	4.c\	-cu-	.	.
!LO:SIC:v:t=custos G	!	!	!	!	!
8E\	lo-	8c\	-t(us)	.	.
!LO:LB:g=original	!	!	!	!	!
4.G\	-cu-	2Bny\	eſt	2r	.
8G\	-tus	.	.	.	.
4D/	eſt	2.A/	per	4.d\	per
4D/	per	.	.	.	.
.	.	.	.	8A/	.
=110-	=110-	=110-	=110-	=110-	=110-
4AA/	Pro-	.	.	4c\	Pro-
2A\	.	4Fny/	pro-	4d\	.
.	.	2E/	-phe-	2Bny\	-phe-
!LO:TX:a:t=P:problem=# above	!	!	!	!	!
4G#X\	-phe-	.	.	.	.
4A\	-tas	4A/	-tas	4c\	-tas
!	!	!	!	!LO:SIC:v:t=custos c	!
4F\	&	4A/	Et	4c\	Et
!	!	!	!	!LO:LB:g=original	!
4F\	v-	4A/	v-	4c\	v-
4F\	-nam	4A/	-na(m)	4c\	-nam
=111-	=111-	=111-	=111-	=111-	=111-
2C/	ſan-	2G/	ſ(an-	2c\	Sa(n)-
4C/	-cta(m)	4G/	-ctam).	4c\	-cta(m)
4BBny/	Ca-	4G/	Ca-	4d\	.
2.C/	-tho-	2.G/	-tjo-	4d\	Ca-
.	.	.	.	8c\L	-tho-
.	.	.	.	8B\J	.
.	.	.	.	4.c\	.
4C/	-li-	4G/	-li-	.	.
.	.	.	.	8c\	-li-
=112-	=112-	=112-	=112-	=112-	=112-
2GG/	-cam	2G/	-cam	4B\	-cam
.	.	.	.	4B\	&
2r	.	2r	.	4.B\	A-
!	!	!	!	!LO:TX:t=P:problem=♯ above	!
.	.	.	.	8c#X\	-po-
0r	.	4r	.	2.d\	-ſto-
.	.	4F/	Et	.	.
.	.	4.F/	A-	.	.
.	.	.	.	4d\	-li-
.	.	8G/	-po-	.	.
=113-	=113-	=113-	=113-	=113-	=113-
.	.	4.A/	-ſto-	4c#X\	-cam
.	.	.	.	4c#\	Ec-
.	.	8A/	-li-	.	.
.	.	4E/	-cam	4e\	-cle-
!	!	!LO:SIC:v:t=custos A	!	!	!
.	.	4F/	Ec-	4d\	.
!	!	!LO:LB:g=original	!	!	!
1r	.	2.A/	-cle-	4c#X\	.
.	.	.	.	4fny\	.
.	.	.	.	4.e\	.
.	.	4A/	-ſi-	.	.
.	.	.	.	8e\	-si-
=114-	=114-	=114-	=114-	=114-	=114-
2r	.	2D/	-am	2d\	-am
!	!	!LO:TX:a:t=P:problem=# above	!	!LO:SIC:v:t=custos B	!
2D/	Con-	2F#X/	Con-	2A/	Con-
!	!	!	!	!LO:LB:g=original	!
2.GG/	-fi-	2.G/	-fi-	2.B-X\	-fi-
!LO:SIC:v:t=custos D	!	!	!	!	!
4GG/	-te-	4G/	-te-	4B-\	-te-
!LO:LB:g=original	!	!	!	!	!
=115-	=115-	=115-	=115-	=115-	=115-
!	!	!LO:N:acc=-	!	!	!
4D/	-or	4Fn/	-or	4A/	-or
4BB-X/	v-	4F/	v-	4B-X\	v-
4BB-/	-nu(m)	4F/	-nu(m)	4B-\	-num
4AA/	bap-	4A/	ba-	4cny\	Ba-
1GG	-ti-	1B-X	-pti-	2d\	-pti-
.	.	.	.	4c\	.
.	.	.	.	4B-X\	.
=116-	=116-	=116-	=116-	=116-	=116-
4FFny/	-ſma	2A/	-ſma	2c\	ſma
8F\	in	.	.	.	.
8E\	re-	.	.	.	.
4D/	-miſ-	4r	.	2r	.
!LO:TX:b:t=P:problem=# below	!	!	!	!	!
4C#X/	-si-	8A/	in	.	.
.	.	8G/	re-	.	.
4D/	-o-	4F/	-miſ-	2r	.
4AA/	-nem	4E/	-si-	.	.
4BB-X/	pec-	1D	-o-	4r	.
4FF#X/	-ca-	.	.	8d\	in
.	.	.	.	8c\	re-
=117-	=117-	=117-	=117-	=117-	=117-
4GG/	-to-	.	.	4B-X\	-miſ-
4D/	-ru(m)	.	.	4A/	-si-
4.GG/	pec-	4D/	-nem	[2G/	-o-
.	.	8.B-X\	pec-	.	.
8GG/	-ca-	.	.	.	.
.	.	16B-\	-ca-	.	.
1AA	-to-	1A	-to-	8G/]	.
.	.	.	.	8Fny/	-nem
.	.	.	.	8.F/	pec-
.	.	.	.	16E/	-ca-
!	!	!	!	!LO:SIC:v:t=custos F	!
.	.	.	.	2E/	-to-
!	!	!	!	!LO:PB:g=original	!
=118-	=118-	=118-	=118-	=118-	=118-
4D/	-rum	4A/	-ru(m)	4F#X/	-rum
2D/	et	2A/	Et	2F#/	Et
!LO:SIC:v:t=custos tekstowy:pecto.	!	!	!	!	!
!LO:SIC:v:t=custos G	!	!LO:SIC:v:t=custos B	!	!	!
4D/	ex-	4A/	Ex-	4F#/	ex-
!LO:PB:g=original	!	!LO:LB:g=original	!	!	!
2GG/	-pe-	2Bny\	-pec-	2G/	-pe-
2GG/	-cto	2B\	-to	2G/	-cto
=119-	=119-	=119-	=119-	=119-	=119-
2r	.	4d\	re-	1r	.
.	.	4c\	-ſur-	.	.
4Gny\	re-	4B\	-re-	.	.
!LO:TX:a:t=P:problem=# above	!	!	!	!	!
4F#X\	-ſur-	4A/	-cti-	.	.
4E\	-re-	1G	-o-	4g\	re-
4D/	-cti-	.	.	4f\	-ſur-
4Cny/	-o-	.	.	4e\	-re-
4BBny/	-ne(m)	.	.	4d\	-cti-
=120-	=120-	=120-	=120-	=120-	=120-
2.AA/	mor-	2A/	-nem	4c\	-o-
.	.	.	.	4Bny\	-nem
.	.	4.c\	mor-	2.A/	mor-
4AA/	-tu-	.	.	.	.
.	.	8c\	-tu-	.	.
1BB	-o-	1B	-o-	.	.
.	.	.	.	4G/	tu-
.	.	.	.	2F#X/	-o-
=121-	=121-	=121-	=121-	=121-	=121-
*M3/1	*	*M3/1	*	*M3/1	*
0E	-rum	0B	-rum	0G#X	-rum
!	!	!LO:TX:b:t=P:problem=# below	!	!	!
1E	&	1G#X	&	1B	Et
=122-	=122-	=122-	=122-	=122-	=122-
1.E	Vi-	1.G#	vi-	1B	Vi-
.	.	.	.	1B	-ta(m)
2E\	-ta(m)	2G#/	-tam	.	.
1E	ve(n)-	1G#	ven-	1B	ven-
=123-	=123-	=123-	=123-	=123-	=123-
1.A	-tu-	1.A	-tu-	1.c	-tu-
2A\	-ri	2A/	-ri	2c\	-ri
*	*	*	*ij	*	*
!	!	!	!	!LO:SIC:v:t=custos d	!
1A	ve(n)-	1A	ven-	1c	ve[n]-
!	!	!	!	!LO:LB:g=original	!
=124-	=124-	=124-	=124-	=124-	=124-
0G	-tu-	0B	-tu-	0d	-tu-
!LO:SIC:v:t=custos C	!	!	!	!	!
1G	-ri	1B	-ri	1d	-ri
*	*	*	*Xij	*	*
!LO:LB:g=original	!	!	!	!	!
=125-	=125-	=125-	=125-	=125-	=125-
1.C	sae-	1.c	sae-	1.e	sae-
2C/	-cu-	2c\	-cu-	2e\	-cu-
!	!	!LO:SIC:v:t=custos c	!	!	!
1C	-li	1c	-li	1e	-li
!	!	!LO:LB:g=original	!	!	!
=126-	=126-	=126-	=126-	=126-	=126-
0C	A-	0c	A-	0e	A-
1C	-men	1c	-men	1e	-men
=127-	=127-	=127-	=127-	=127-	=127-
*	*	*	*ij	*	*
2C/	A-	0c	A-	0e	A-
2D/	.	.	.	.	.
2E\	.	.	.	.	.
2Fny\	.	.	.	.	.
1G	.	1B	-men	1d	-men
*	*	*	*Xij	*	*
=128-	=128-	=128-	=128-	=128-	=128-
*col	*	*	*	*	*
1A	.	0A	A-	1c	.
*	*	*	*	*col	*
0E	.	.	.	0B	A-
!	!	!LO:TX:a:t=P:problem=# above	!	!	!
.	.	1G#X	.	.	.
*Xcol	*	*	*	*	*
=129-	=129-	=129-	=129-	=129-	=129-
*M2/1	*	*M2/1	*	*M2/1	*
*met(C|)	*	*met(C|)	*	*met(C|)	*
!	!	!	!	!LO:TX:b:t=P:problem=# below	!
2AA/	-men	00Al	-men.	1c#X	-men
4A\	A-	.	.	.	.
4G\	.	.	.	.	.
2F\	.	.	.	2d\	.
2C#X/	.	.	.	2.e\	A-
=130-	=130-	=130-	=130-	=130-	=130-
1D	.	.	.	.	.
.	.	.	.	8d\L	.
.	.	.	.	8c#\J	.
.	.	.	.	2d\	.
1AAl;<	-men.	.	.	1c#l	-men.
==	==	==	==	==	==
*-	*-	*-	*-	*-	*-
!!!system-decoration: [(s1,s2,s3)]
!!!RDF**kern: < = below
!!!RDF**kern: l = terminal long
!!!AIN: 1 bass 2 tenor
!!!ENC: Marta Lawrence
!!!END: 2021-07-07
!!!ENC: Krzysztof Stępień
!!!END: 2021-06-23
